Obsidian/actions/16s/icon_radio.svg

<svg height="16" width="16" xmlns="http://www.w3.org/2000/svg"><path d="m2 3c-.554 0-1 .446-1 1v8c0 .554.446 1 1 1h12c.554 0 1-.446 1-1v-8c0-.554-.446-1-1-1zm4 2c1.6568 0 3 1.3432 3 3s-1.3432 3-3 3-3-1.3432-3-3 1.3432-3 3-3zm0 1a2 2 0 0 0 -2 2 2 2 0 0 0 2 2 2 2 0 0 0 2-2 2 2 0 0 0 -2-2zm4 0h4v1h-4zm0 2h4v1h-4zm0 2h4v1h-4z" fill="#bebebe"/></svg>

<svg xmlns="http://www.w3.org/2000/svg" width="16" height="16" version="1.1">
 <defs>
  <style id="current-color-scheme" type="text/css">
   .ColorScheme-Text { color:#bebebe; } .ColorScheme-Highlight { color:#4285f4; }
  </style>
 </defs>
 <path style="fill:currentColor" class="ColorScheme-Text" d="M 2,3 C 1.446,3 1,3.446 1,4 l 0,8 c 0,0.554 0.446,1 1,1 l 12,0 c 0.554,0 1,-0.446 1,-1 L 15,4 C 15,3.446 14.554,3 14,3 L 2,3 Z M 6,5 C 7.6568,5 9,6.3432 9,8 9,9.6568 7.6568,11 6,11 4.3432,11 3,9.6568 3,8 3,6.3432 4.3432,5 6,5 Z M 6,6 A 2,2 0 0 0 4,8 2,2 0 0 0 6,10 2,2 0 0 0 8,8 2,2 0 0 0 6,6 Z m 4,0 4,0 0,1 -4,0 0,-1 z m 0,2 4,0 0,1 -4,0 0,-1 z m 0,2 4,0 0,1 -4,0 0,-1 z"/>
</svg>
